X:117
T:Jacky my Son - FJ Adams
%%VWML:SBG-1-2-749-0
F:http://www.vwml.org/record/SBG/1/2/749
Z:Original Sibelius transcriptions by M. & S. Graebe
M:6/8
I:linebreak $
K:Bb
V:1 treble nm="P1"
V:1
 D G A B3/2 A/ G | G/ D3/2 =E =FED | D G B3/2 A/ G | G D D G2 B/c/ |$ d e d c/ A3/2 A/c/ | %5
 B A G A2 z D | D G A B3/2 A/ B | D G ^F G2 z | %8
T:Jacky my Son - J Parsons
F:http://www.vwml.org/record/SBG/1/2/749
Z:Original Sibelius transcriptions by M. & S. Graebe
M:6/8
I:linebreak $
K:Bb
V:1 treble nm="P1"
V:1
 D | GAB AGD | G G ^F G2 G | =FED CDG | d d ^c d3 B/=c/ |$ ded cBG | B c d G2 D/D/ | GAB AGD | %8
T:Jacky my Son - Scottish air
F:http://www.vwml.org/record/SBG/1/2/749
Z:Original Sibelius transcriptions by M. & S. Graebe
M:3/4
I:linebreak $
K:F
V:1 treble nm="P1"
V:1
 FG | A2 A2 Ac | A2 G2 Gc | d2 d2 cA | G4 AB | d3 c AF |$ CD F2 FG | A2 BA G>F | F4 F3/2 G/ | %9
 A2 A2 Ac | A2 G2 A c |$ d2 c2 cA | G4 A c | d3 c A F | CD F2 FG | A2 BA G>F | F4 x2 | %17
T:Jacky my Son -Louisa Williams
F:http://www.vwml.org/record/SBG/1/2/749
Z:Original Sibelius transcriptions by M. & S. Graebe
M:4/4
I:linebreak $
K:C
V:1 treble nm="P1"
V:1
 c2 cd e2 e e | d2 g2 ed c2 | c2 c d e2 e e | d2 B B c4 |$ c2 B A e2 d c | B2 cB A2 E2 | %6
w: Where have you been today _|My boy Billy _ boy!||My pretty _ man|||
 c2 cd e2 e e | d2 B2 c4 |$ c2 cd e2 e e | d2 g2 ed c2 | c2 c d e2 e e | d2 B B c4 | %12
w: ||||||
T:Jacky my Son - Woodrich SBG
F:http://www.vwml.org/record/SBG/1/2/749
Z:Original Sibelius transcriptions by M. & S. Graebe
M:4/4
I:linebreak $
K:F
V:1 treble nm="P1"
V:1
 F2 F F G3 F | G2 F2 ED C2 | F2 F F A2 Bc | B2 AG A4 | d2 d d c2 BA |$ G2 A B A2 GF | D2 EF G2 FE | %7
w: Wher * * * *|||||||
 D4 z3/2 | F2 Ac B2 AG | (F3 A) G2 (F2 | F3) x x4 | %11
w: ||||
T:Jacky my Son -Woodrich CJS
F:http://www.vwml.org/record/SBG/1/2/749
Z:Original Sibelius transcriptions by M. & S. Graebe
M:6/8
I:linebreak $
K:G
V:1 treble nm="P1"
V:1
 G2 G G2 G | A2 F FED | GFG Bcd | cBA d3 |$ e2 e d2 d | ABA FED | GBd cBA | GBA G2 x | %8

